germany/municipalities/07235129.svg

<?xml version="1.0" encoding="UTF-8" standalone="no"?>
<!-- Created with Inkscape (http://www.inkscape.org/) -->

<svg
   xmlns:dc="http://purl.org/dc/elements/1.1/"
   xmlns:cc="http://creativecommons.org/ns#"
   xmlns:rdf="http://www.w3.org/1999/02/22-rdf-syntax-ns#"
   xmlns:svg="http://www.w3.org/2000/svg"
   xmlns="http://www.w3.org/2000/svg"
   xmlns:sodipodi="http://sodipodi.sourceforge.net/DTD/sodipodi-0.dtd"
   xmlns:inkscape="http://www.inkscape.org/namespaces/inkscape"
   width="128.84531mm"
   height="159.9805mm"
   viewBox="0 0 128.84531 159.9805"
   version="1.1"
   id="svg865"
   inkscape:version="0.92.5 (2060ec1f9f, 2020-04-08)"
   sodipodi:docname="DEU Sommerau COA.svg">
  <defs
     id="defs859">
    <inkscape:path-effect
       effect="spiro"
       id="path-effect1034"
       is_visible="true" />
    <inkscape:path-effect
       effect="spiro"
       id="path-effect3644"
       is_visible="true" />
    <inkscape:path-effect
       effect="spiro"
       id="path-effect3636"
       is_visible="true" />
    <inkscape:path-effect
       effect="spiro"
       id="path-effect3544"
       is_visible="true" />
    <inkscape:path-effect
       effect="spiro"
       id="path-effect3466"
       is_visible="true" />
    <inkscape:path-effect
       effect="spiro"
       id="path-effect3544-2"
       is_visible="true" />
    <inkscape:path-effect
       effect="spiro"
       id="path-effect3644-8"
       is_visible="true" />
    <inkscape:path-effect
       effect="spiro"
       id="path-effect3644-3"
       is_visible="true" />
    <inkscape:path-effect
       effect="spiro"
       id="path-effect3636-0"
       is_visible="true" />
    <inkscape:path-effect
       effect="spiro"
       id="path-effect1727-0-1"
       is_visible="true" />
    <inkscape:path-effect
       effect="spiro"
       id="path-effect1731-8-3"
       is_visible="true" />
    <inkscape:path-effect
       effect="spiro"
       id="path-effect1727-3"
       is_visible="true" />
    <inkscape:path-effect
       effect="spiro"
       id="path-effect1731-7"
       is_visible="true" />
    <inkscape:path-effect
       effect="spiro"
       id="path-effect841-8"
       is_visible="true" />
    <inkscape:path-effect
       effect="spiro"
       id="path-effect1034-9"
       is_visible="true" />
  </defs>
  <sodipodi:namedview
     id="base"
     pagecolor="#ffffff"
     bordercolor="#666666"
     borderopacity="1.0"
     inkscape:pageopacity="0.0"
     inkscape:pageshadow="2"
     inkscape:zoom="1.311501"
     inkscape:cx="243.4872"
     inkscape:cy="302.32536"
     inkscape:document-units="mm"
     inkscape:current-layer="layer1"
     showgrid="false"
     inkscape:window-width="1920"
     inkscape:window-height="1046"
     inkscape:window-x="-11"
     inkscape:window-y="-11"
     inkscape:window-maximized="1"
     fit-margin-top="0"
     fit-margin-left="0"
     fit-margin-right="0"
     fit-margin-bottom="0"
     inkscape:snap-global="true"
     inkscape:snap-midpoints="true"
     inkscape:snap-smooth-nodes="true" />
  <metadata
     id="metadata862">
    <rdf:RDF>
      <cc:Work
         rdf:about="">
        <dc:format>image/svg+xml</dc:format>
        <dc:type
           rdf:resource="http://purl.org/dc/dcmitype/StillImage" />
        <dc:title></dc:title>
      </cc:Work>
    </rdf:RDF>
  </metadata>
  <g
     inkscape:label="Ebene 1"
     inkscape:groupmode="layer"
     id="layer1"
     transform="translate(12.321319,173.8637)">
    <path
       style="fill:#ffffff;fill-rule:evenodd;stroke:none;stroke-width:3.4395833;stroke-linecap:round;stroke-linejoin:round;stroke-miterlimit:4;stroke-dasharray:none;stroke-opacity:1"
       inkscape:connector-curvature="0"
       d="m 114.8042,-172.14391 -0.28667,94.538471 c -1.39576,37.54097 -28.972861,61.981429 -62.416186,62.00245 -33.41325,-0.0461 -61.000682,-24.497199 -62.416192,-62.00245 l -0.28668,-94.538471 h 62.701361 z"
       id="path10563-0-6-2-6-8-5"
       sodipodi:nodetypes="ccccccc" />
    <path
       style="opacity:1;fill:#ff0000;fill-opacity:1;fill-rule:evenodd;stroke:#000c00;stroke-width:7.99999952;stroke-linecap:round;stroke-linejoin:round;stroke-miterlimit:4;stroke-dasharray:none;stroke-opacity:1;paint-order:normal"
       d="M 51.373047 69.419922 C 50.013927 69.419922 48.919922 70.513929 48.919922 71.873047 L 48.919922 118.38867 L 11.414062 118.38867 C 10.054952 118.38867 8.9609375 119.48269 8.9609375 120.8418 L 8.9609375 168.00391 C 8.9609375 169.36302 10.054952 170.45703 11.414062 170.45703 L 475.56055 170.45703 C 476.91966 170.45703 478.01367 169.36302 478.01367 168.00391 L 478.01367 120.8418 C 478.01367 119.48269 476.91966 118.38867 475.56055 118.38867 L 438.05469 118.38867 L 438.05469 71.873047 C 438.05469 70.513929 436.96064 69.419922 435.60156 69.419922 L 361.25391 69.419922 C 359.8948 69.419922 358.80078 70.513929 358.80078 71.873047 L 358.80078 118.38867 L 283.11328 118.38867 L 283.11328 71.873047 C 283.11328 70.513929 282.01928 69.419922 280.66016 69.419922 L 206.31445 69.419922 C 204.95534 69.419922 203.86133 70.513929 203.86133 71.873047 L 203.86133 118.38867 L 128.17188 118.38867 L 128.17188 71.873047 C 128.17188 70.513929 127.07786 69.419922 125.71875 69.419922 L 51.373047 69.419922 z M 268.48047 209.5957 C 264.33248 209.52314 260.16423 210.42539 256.44336 212.26367 C 250.48992 215.20494 245.74693 220.51319 243.49414 226.75977 C 241.24132 220.51319 236.50025 215.20494 230.54688 212.26367 C 226.82599 210.42539 222.65833 209.52498 218.50977 209.59766 C 216.02063 209.64112 213.53782 210.03476 211.16406 210.78711 C 203.48463 213.22094 197.15911 219.33337 194.03711 226.75977 C 190.70262 234.6916 190.99079 244.06552 194.80664 251.77734 C 196.0388 247.92181 198.85249 244.59889 202.45117 242.74609 C 206.04989 240.89329 210.39012 240.53456 214.24414 241.77148 C 218.11336 243.01332 221.44462 245.84785 223.28906 249.46875 L 223.28906 349.28125 L 145.95508 349.28125 C 142.3342 347.43682 139.4996 344.10552 138.25781 340.23633 C 137.02089 336.3823 137.37962 332.04206 139.23242 328.44336 C 141.08522 324.84466 144.40811 322.03294 148.26367 320.80078 C 143.92577 318.65438 139.06176 317.62378 134.22461 317.72656 C 130.46238 317.8065 126.71627 318.57241 123.24609 320.03125 C 115.81976 323.15323 109.70726 329.47879 107.27344 337.1582 C 105.26725 343.48824 105.80873 350.58566 108.75 356.53906 C 111.69127 362.49247 116.99957 367.23548 123.24609 369.48828 C 116.99957 371.74108 111.69127 376.48214 108.75 382.43555 C 105.80873 388.38895 105.26725 395.48833 107.27344 401.81836 C 109.70726 409.49778 115.81976 415.82333 123.24609 418.94531 C 131.17792 422.2798 140.55185 421.99161 148.26367 418.17578 C 144.40811 416.94362 141.08522 414.12995 139.23242 410.53125 C 137.37962 406.93255 137.02089 402.59231 138.25781 398.73828 C 139.4996 394.86909 142.3342 391.53779 145.95508 389.69336 L 223.28906 389.69336 L 223.28906 489.52344 C 221.44462 493.14434 218.11336 495.97891 214.24414 497.2207 C 210.39012 498.45764 206.04989 498.09891 202.45117 496.24609 C 198.85249 494.39329 196.0388 491.07037 194.80664 487.21484 C 190.99079 494.92666 190.70262 504.30059 194.03711 512.23242 C 197.15911 519.65878 203.48463 525.77125 211.16406 528.20508 C 217.49409 530.21125 224.59348 529.66977 230.54688 526.72852 C 236.50025 523.78725 241.24132 518.47896 243.49414 512.23242 C 245.74693 518.47896 250.48992 523.78725 256.44336 526.72852 C 262.39676 529.66977 269.49415 530.21125 275.82422 528.20508 C 283.50361 525.77125 289.8292 519.65878 292.95117 512.23242 C 294.41003 508.76225 295.17611 505.01612 295.25586 501.25391 C 295.35862 496.41675 294.32803 491.55271 292.18164 487.21484 C 290.94947 491.07037 288.13778 494.39329 284.53906 496.24609 C 280.94035 498.09891 276.60012 498.45764 272.74609 497.2207 C 268.87689 495.97891 265.54562 493.14434 263.70117 489.52344 L 263.70117 389.69336 L 341.01953 389.69336 C 344.64043 391.53781 347.475 394.86907 348.7168 398.73828 C 349.95373 402.5923 349.595 406.93254 347.74219 410.53125 C 345.8894 414.12993 342.56646 416.94362 338.71094 418.17578 C 346.42275 421.99163 355.79669 422.2798 363.72852 418.94531 C 371.15488 415.82331 377.26735 409.49779 379.70117 401.81836 C 381.70735 395.48833 381.16587 388.38895 378.22461 382.43555 C 375.28334 376.48215 369.97505 371.74111 363.72852 369.48828 C 369.97505 367.23549 375.28334 362.4925 378.22461 356.53906 C 381.16587 350.58566 381.70735 343.48827 379.70117 337.1582 C 377.26735 329.47882 371.15488 323.15322 363.72852 320.03125 C 360.25835 318.57239 356.51221 317.80631 352.75 317.72656 C 347.91284 317.6238 343.0488 318.65439 338.71094 320.80078 C 342.56646 322.03295 345.8894 324.84464 347.74219 328.44336 C 349.595 332.04207 349.95373 336.38231 348.7168 340.23633 C 347.475 344.10554 344.64043 347.4368 341.01953 349.28125 L 263.70117 349.28125 L 263.70117 249.46875 C 265.54562 245.84785 268.87689 243.01332 272.74609 241.77148 C 276.60012 240.53456 280.94035 240.89329 284.53906 242.74609 C 288.13778 244.59889 290.94948 247.92181 292.18164 251.77734 C 294.32803 247.43947 295.35862 242.57547 295.25586 237.73828 C 295.17611 233.9761 294.41003 230.2299 292.95117 226.75977 C 289.82921 219.33337 283.50361 213.22094 275.82422 210.78711 C 273.45044 210.03476 270.96926 209.63928 268.48047 209.5957 z "
       transform="matrix(0.26458333,0,0,0.26458333,-12.321319,-173.8637)"
       id="rect996" />
    <path
       style="fill:none;fill-rule:evenodd;stroke:#000c00;stroke-width:3.4395833;stroke-linecap:round;stroke-linejoin:round;stroke-miterlimit:4;stroke-dasharray:none;stroke-opacity:1"
       inkscape:connector-curvature="0"
       d="m 114.8042,-172.14391 -0.28667,94.538467 c -1.39576,37.54097 -28.972862,61.981429 -62.416188,62.00245 -33.41325,-0.0461 -61.0006801,-24.497199 -62.41619,-62.00245 l -0.28668,-94.538467 h 62.70136 z"
       id="path10563-0-6-2-6-8"
       sodipodi:nodetypes="ccccccc" />
  </g>
</svg>

<svg xmlns="http://www.w3.org/2000/svg" width="486.974" height="604.651" viewBox="0 0 128.845 159.981"><path style="fill:#fff;fill-rule:evenodd;stroke:none;stroke-width:3.4395833;stroke-linecap:round;stroke-linejoin:round;stroke-miterlimit:4;stroke-dasharray:none;stroke-opacity:1" d="m114.804-172.144-.286 94.539c-1.396 37.54-28.973 61.981-62.417 62.002-33.413-.046-61-24.497-62.416-62.002l-.287-94.539H52.1z" transform="translate(12.321 173.864)"/><path style="opacity:1;fill:red;fill-opacity:1;fill-rule:evenodd;stroke:#000c00;stroke-width:7.99999952;stroke-linecap:round;stroke-linejoin:round;stroke-miterlimit:4;stroke-dasharray:none;stroke-opacity:1;paint-order:normal" d="M51.373 69.42a2.448 2.448 0 0 0-2.453 2.453v46.516H11.414a2.448 2.448 0 0 0-2.453 2.453v47.162a2.448 2.448 0 0 0 2.453 2.453h464.147a2.448 2.448 0 0 0 2.453-2.453v-47.162a2.448 2.448 0 0 0-2.453-2.453h-37.506V71.873a2.448 2.448 0 0 0-2.453-2.453h-74.348a2.448 2.448 0 0 0-2.453 2.453v46.516h-75.688V71.873a2.448 2.448 0 0 0-2.453-2.453h-74.346a2.448 2.448 0 0 0-2.453 2.453v46.516h-75.69V71.873a2.448 2.448 0 0 0-2.452-2.453H51.373zM268.48 209.596c-4.148-.073-8.316.83-12.037 2.668-5.953 2.94-10.696 8.25-12.949 14.496-2.253-6.247-6.994-11.555-12.947-14.496-3.721-1.839-7.889-2.739-12.037-2.666-2.49.043-4.972.437-7.346 1.19-7.68 2.433-14.005 8.545-17.127 15.972-3.334 7.932-3.046 17.306.77 25.017 1.232-3.855 4.045-7.178 7.644-9.03 3.599-1.854 7.94-2.212 11.793-.976 3.87 1.242 7.2 4.077 9.045 7.698v99.812h-77.334c-3.62-1.844-6.455-5.175-7.697-9.045-1.237-3.854-.878-8.194.974-11.793 1.853-3.598 5.176-6.41 9.032-7.642-4.338-2.147-9.202-3.177-14.04-3.074-3.762.08-7.508.845-10.978 2.304-7.426 3.122-13.539 9.448-15.973 17.127-2.006 6.33-1.464 13.428 1.477 19.381 2.941 5.953 8.25 10.696 14.496 12.95-6.246 2.252-11.555 6.993-14.496 12.947-2.941 5.953-3.483 13.052-1.477 19.382 2.434 7.68 8.547 14.005 15.973 17.127 7.932 3.335 17.306 3.047 25.018-.77-3.856-1.231-7.179-4.045-9.032-7.644-1.852-3.598-2.211-7.939-.974-11.793 1.242-3.869 4.076-7.2 7.697-9.045h77.334v99.83c-1.844 3.621-5.176 6.456-9.045 7.698-3.854 1.237-8.194.878-11.793-.975-3.599-1.853-6.412-5.176-7.644-9.031-3.816 7.712-4.104 17.086-.77 25.017 3.122 7.427 9.448 13.54 17.127 15.973 6.33 2.006 13.43 1.465 19.383-1.476 5.953-2.942 10.694-8.25 12.947-14.497 2.253 6.247 6.996 11.555 12.95 14.497 5.953 2.94 13.05 3.482 19.38 1.476 7.68-2.434 14.005-8.546 17.127-15.973 1.459-3.47 2.225-7.216 2.305-10.978.103-4.837-.928-9.701-3.074-14.04-1.233 3.856-4.044 7.18-7.643 9.032-3.599 1.853-7.939 2.212-11.793.975-3.87-1.242-7.2-4.077-9.045-7.698v-99.83h77.319c3.62 1.845 6.455 5.176 7.697 9.045 1.237 3.854.878 8.195-.975 11.793-1.853 3.599-5.176 6.413-9.031 7.645 7.712 3.816 17.086 4.104 25.018.77 7.426-3.123 13.538-9.448 15.972-17.128 2.006-6.33 1.465-13.429-1.476-19.382-2.942-5.954-8.25-10.695-14.496-12.948 6.246-2.253 11.554-6.995 14.496-12.949 2.94-5.953 3.482-13.05 1.476-19.38-2.434-7.68-8.546-14.006-15.972-17.128-3.47-1.459-7.217-2.225-10.979-2.304-4.837-.103-9.701.927-14.04 3.074 3.856 1.232 7.18 4.044 9.032 7.642 1.853 3.6 2.212 7.94.975 11.793-1.242 3.87-4.077 7.2-7.697 9.045H263.7V249.47c1.845-3.621 5.176-6.456 9.045-7.698 3.854-1.236 8.194-.878 11.793.975 3.599 1.853 6.41 5.176 7.643 9.031 2.146-4.338 3.177-9.202 3.074-14.039-.08-3.762-.846-7.508-2.305-10.978-3.122-7.427-9.447-13.54-17.127-15.973a25.83 25.83 0 0 0-7.344-1.191z" transform="scale(.26458)"/><path style="fill:none;fill-rule:evenodd;stroke:#000c00;stroke-width:3.4395833;stroke-linecap:round;stroke-linejoin:round;stroke-miterlimit:4;stroke-dasharray:none;stroke-opacity:1" d="m114.804-172.144-.286 94.539c-1.396 37.54-28.973 61.981-62.417 62.002-33.413-.046-61-24.497-62.416-62.002l-.287-94.539H52.1z" transform="translate(12.321 173.864)"/></svg>
